X: 18399
T: Hunt The Fox
R: slip jig
M: 9/8
K: Dmajor
|:d2B AFA AFA|d2B AGF E3|d2B AFA AFA|d2B AFD D3:|
|:fed faf g2e|fed faf e2g|fed faf g2e|d2B AFD D3:|

